X:4468
T:Drying Out
M:C|
L:1/8
C:Liz Carroll
R:reel
D:Dear Old Erin's Isle
Z:Devin McCabe
K:DMix
F/2E/2D FG Ad^cd|GcGc BGAG|FDFG Ad^cd|DEFG cGAG|
!F/2E/2D FG Ad^cd|GcGc BGAG|=FEFA _BABF|GEA,B, CDED:|
!:E/2F/2G A^c d2Ad|d^cAd fddA|D/2E/2F GB c2Gc|cBGc eccA|
!EFGF DEFA|d2Ad gdfd|c2Gc =fcec|cBGc AddA:|
